Sources/FrostedUI/Resources/Icons.xcassets/clipboard24.imageset/clipboard-24.svg

<svg width="24" height="24" viewBox="0 0 24 24" fill="none" xmlns="http://www.w3.org/2000/svg" data-fui-icon="true">
  <path
    d="M12.7842 0.5C13.4179 0.500092 13.983 0.898432 14.1963 1.49512L14.377 2H15.499C16.151 2.00004 16.7066 2.41708 16.9131 3H18.375C19.8247 3 21 4.17525 21 5.625V21.375C21 22.8247 19.8247 24 18.375 24H5.625C4.17525 24 3 22.8247 3 21.375V5.625C3 4.17525 4.17525 3 5.625 3H7.08691C7.2934 2.41708 7.84896 2.00004 8.50098 2H9.62305L9.80371 1.49512C10.017 0.898433 10.5821 0.500092 11.2158 0.5H12.7842ZM5.625 4.5C5.00368 4.5 4.5 5.00368 4.5 5.625V21.375C4.5 21.9963 5.00368 22.5 5.625 22.5H18.375C18.9963 22.5 19.5 21.9963 19.5 21.375V5.625C19.5 5.00368 18.9963 4.5 18.375 4.5H17V5C17 5.82843 16.3284 6.5 15.5 6.5H8.5C7.67157 6.5 7 5.82843 7 5V4.5H5.625ZM16.25 17.75C16.6642 17.75 17 18.0858 17 18.5C17 18.9142 16.6642 19.25 16.25 19.25H7.75C7.33579 19.25 7 18.9142 7 18.5C7 18.0858 7.33579 17.75 7.75 17.75H16.25ZM16.25 13.25C16.6642 13.25 17 13.5858 17 14C17 14.4142 16.6642 14.75 16.25 14.75H7.75C7.33579 14.75 7 14.4142 7 14C7 13.5858 7.33579 13.25 7.75 13.25H16.25ZM16.25 8.75C16.6642 8.75 17 9.08579 17 9.5C17 9.91421 16.6642 10.25 16.25 10.25H7.75C7.33579 10.25 7 9.91421 7 9.5C7 9.08579 7.33579 8.75 7.75 8.75H16.25ZM10.8584 3.00195L10.1514 2.74902V2.75L10.8584 3.00195C10.7518 3.30045 10.4683 3.5 10.1514 3.5H8.50098L8.5 3.50098V5H15.5V3.50098L15.499 3.5H13.8486C13.5317 3.5 13.2482 3.30045 13.1416 3.00195L13.8486 2.75V2.74902L13.1416 3.00195L12.7842 2H11.2158L10.8584 3.00195Z"
    fill="currentColor"
  />
</svg>

<svg xmlns="http://www.w3.org/2000/svg" width="24" height="24" fill="none" data-fui-icon="true" viewBox="0 0 24 24"><path fill="currentColor" d="M12.784.5a1.5 1.5 0 0 1 1.412.995l.181.505h1.122c.652 0 1.208.417 1.414 1h1.462A2.625 2.625 0 0 1 21 5.625v15.75A2.625 2.625 0 0 1 18.375 24H5.625A2.625 2.625 0 0 1 3 21.375V5.625A2.625 2.625 0 0 1 5.625 3h1.462c.206-.583.762-1 1.414-1h1.122l.18-.505A1.5 1.5 0 0 1 11.217.5zm-7.159 4c-.621 0-1.125.504-1.125 1.125v15.75c0 .621.504 1.125 1.125 1.125h12.75c.621 0 1.125-.504 1.125-1.125V5.625c0-.621-.504-1.125-1.125-1.125H17V5a1.5 1.5 0 0 1-1.5 1.5h-7A1.5 1.5 0 0 1 7 5v-.5zM16.25 17.75a.75.75 0 0 1 0 1.5h-8.5a.75.75 0 0 1 0-1.5zm0-4.5a.75.75 0 0 1 0 1.5h-8.5a.75.75 0 0 1 0-1.5zm0-4.5a.75.75 0 0 1 0 1.5h-8.5a.75.75 0 0 1 0-1.5zm-5.392-5.748-.707-.253v.001za.75.75 0 0 1-.707.498h-1.65l-.001.001V5h7V3.501l-.001-.001h-1.65c-.317 0-.6-.2-.707-.498l.707-.252v-.001l-.707.253L12.784 2h-1.568z"/></svg>
